Papirus/16x16/apps/josm.svg

<svg width="16" height="16" version="1.1" xmlns="http://www.w3.org/2000/svg">
 <path d="m 1.0117188,5.6425781 -4.292e-4,8.3225929 c 0,0 -0.11125566,0.654517 0.3647464,0.79218 l 0.1923234,0.05124 6.59375,0.509765 2.1712236,-0.684234 0.768229,0.22525 3.894135,0.45592 V 3.0998941 c 0.06547,-0.6348332 -0.63778,-0.7657056 -0.63778,-0.7657056 L 10.333333,1.170504 9.8203125,1.3320312 9,2 8.0351562,1.8945312 6,2.5363784 4.6074219,2.1582031 Z" style="fill:#ffc107"/>
 <path d="m9.8203125 1.3320312-1.7851563 0.5625c-0.4449517 0.4780569-0.7011718 0.9667459-0.7011718 1.8027344 0 1.0953613 0.4386646 1.3267318 0.5820312 1.8535156 0.2722665 1.0004857 0.377625 1.7067652 0.703125 2.5292969 0.4479167 1.132266 0.0697245 2.9192289 0.546875 4.0449219 0.2722 0.642219 0.4179692 0.756717 1.1679684 1.09375 0.166667 0.168517 0.416667 0.505312 0.5 0.673828 0.184085 0.372244 0.134188 0.687334 0.267578 0.966797l3.236329 0.949219c0.088526 0.030966 0.16407 0.047352 0.230468 0.050781 0.132797 0.006859 0.225813-0.034938 0.289063-0.097656 0.158125-0.156797 0.138672-0.445313 0.138672-0.445313v-0.001953-0.1875c-0.344705-3.172339-2.501817-3.662959-3.400391-4.421875-1.0119-0.8546175-0.364552-1.6741781-0.761719-2.8789061-0.094416-0.2863946-0.333333-1.2631238-0.5-1.4316407-0.7499992-0.5055512-1.1679684-1.0109306-1.4179684-1.8535156-0.5053172-1.7031425 1.0190485-2.6142335 0.9042969-3.2089844zm-5.5976563 12.38086c-0.072472-0.0056-0.1463853-0.002422-0.2226562 0.011718-0.6957167 0.129033-0.6673176 0.92633-1.3339844 0.757813-0.3387395-0.085593-0.800549 0.039977-1.0976562 0.326172l4.4160156 1.1875 0.1210938-0.029297 2.0566406-0.648438c-0.5697941-0.803108-1.8255731-2.012762-2.1953125-1.339843-0.5104166 0.221179-1.2368343-0.226471-1.7441407-0.265625z" style="fill:#0c7bd4"/>
 <path d="m1.4824219 1.3339844c-0.0437171-0.0018067-0.0908416-0.0012362-0.1425781 0.0097656-0.009914 0.0021256-0.0193541 0.0030425-0.0292969 0.0058594-0.0660127 0.0189141-0.1307992 0.0597589-0.1835938 0.1210937-0.0201767 0.02366-0.0370481 0.0519842-0.0527343 0.0839844-0.0089244 0.018169-0.0202243 0.0335293-0.0273438 0.0546875-0.0216816 0.0646737-0.0351562 0.1398075-0.0351562 0.2363281v3.796875c0.1599238-0.0745338 0.3759591-0.1738281 0.4882812-0.1738281 0.3617834 0 0.584125 0.0833002 0.953125 0.0351562 0.2277333-0.029776 0.3818833-0.2472264 0.59375-0.3007812 0.2001665-0.0505549 0.4641999-0.0357145 0.65625-0.1328125 0.2621667-0.1324544 0.6296481-0.5281956 0.8320312-1.3828125 0.0585501-0.2472818-0.0703124-0.5187087-0.0703124-0.7714844 0-0.159053 0.0514265-0.5204429 0.1425781-0.7578125l-2.9804688-0.8105469-0.0058593-0.0019531s-0.0019233 8.3e-6 -0.0019532 0c0 0-0.0729512-0.0067799-0.1367187-0.0117187z" style="fill:#4caf50"/>
 <path d="M 7.9166665,6.647306 7.75,5.9732383 6.8333333,6.7315648 7.0000002,7.4056326 Z" style="fill:#81c784"/>
 <path d="M 3.3333334,12.461142 6,12.292626 6.7500002,11.618558 V 10.017646 L 6,10.691714 3.3333334,10.94449 Z" style="fill:#4d7687"/>
 <path d="M 6.8833333,8.6695099 6.6333334,7.4224847 6,7.9111841 4.6666669,8.1639595 4.2500001,6.0574967 2.5,6.4787894 3.1666665,10.059775 6,9.4278365 Z" style="fill:#df5050"/>
 <path d="m13 3.6982589v1.5166532l1.416666 0.4212919v-1.5166524z" style="fill:#ff8a65"/>
 <path d="M 6,3.1927081 7.75,2.51864 V 3.1927081 L 7.2499997,3.361225 V 3.5850661 L 6,4.1195516 5.7170001,4.0352928 V 3.1084494 Z" style="fill:#00bcd4"/>
 <path d="m11.916666 8.8380273 1.416667 0.9268435 0.5-0.6740681-1.416666-0.9268432z" style="fill:#b89b00"/>
 <path d="m13.749783 6.3100645-0.499783 0.6745532 1.416558 0.9268435 0.328884-0.4436045v-0.3429933z" style="fill:#b89b00"/>
 <path d="M 12.583333,7.9111841 14,8.8380273 14.499999,8.1639595 13.083333,7.237116 Z" style="fill:#b89b00"/>
 <path d="m2.2167969 6.7651021-0.2498915 0.084605 0.5666233 3.2858729-0.078234 2.740896 0.2840711-0.04345 0.077474-2.714219zm0.5225694 6.0679289-0.00608 0.201222-0.2833115 0.01677 0.00532-0.174545-0.038737 0.0061-1.4051648 0.993918v0.08841s-0.0295474 0.187384 0.013672 0.382628l1.4750453-1.043464 0.166341-0.05107 3.3335495-0.201985 1.1667761-0.926844-0.083551-0.4215-1.0832268 0.92685-3.2499991 0.201985z" style="fill:#646464"/>
 <ellipse cx="2.592" cy="13.059" rx=".225" ry=".228" style="fill:#222222;stroke-linecap:round;stroke-linejoin:round;stroke-width:.13407141;stroke:#ffffff"/>
 <ellipse cx="7.167" cy="11.88" rx=".225" ry=".228" style="fill:#222222;stroke-linecap:round;stroke-linejoin:round;stroke-width:.13407141;stroke:#ffffff"/>
 <ellipse cx="2.083" cy="6.824" rx=".225" ry=".228" style="fill:#222222;stroke-linecap:round;stroke-linejoin:round;stroke-width:.13407141;stroke:#ffffff"/>
 <ellipse cx="2.667" cy="10.127" rx=".225" ry=".228" style="fill:#222222;stroke-linecap:round;stroke-linejoin:round;stroke-width:.13407141;stroke:#ffffff"/>
 <path d="m1.0112896 1.8462083v12.118963s-0.11125566 0.654517 0.3647464 0.79218l4.623964 1.242649c-0.015625-0.003906 0-13.463622 0-13.463622l-4.3798458-1.1897857s-0.6088646-0.1695589-0.6088646 0.4996156z" style="fill:#ffffff;opacity:.3"/>
 <path d="m10.333333 14.634125 4.004323 1.175563c0.708207 0.247732 0.658041-0.494393 0.658041-0.494393v-12.215401c0.06547-0.6348332-0.63778-0.7657056-0.63778-0.7657056l-4.024584-1.1636845z" style="fill:#ffffff;opacity:.3"/>
 <path d="m7.1686198 9.0155623-0.1238066 2.1891097 0.570421 0.338287 1.6922745-1.257839z" style="fill:#d9c8b0"/>
 <path d="M 7.0448132,11.204672 7,12 7.6152342,11.542959 Z" style="fill:#505050"/>
 <path d="m12.903972 5.291665e-4c-0.639568 0.020258424-1.207461 0.62742899-1.424914 1.0226777l-4.3104382 7.9923554 2.1388889 1.2695577 0.0546875-0.040625 4.4031028-8.0587636c0.496126-0.8549454 0.132178-1.8541498-0.410156-2.0961378-0.15175-0.06771059-0.303579-0.09373941-0.451171-0.089064394z" style="fill:#a15f34"/>
</svg>

<svg xmlns="http://www.w3.org/2000/svg" width="16" height="16" version="1.1">
 <path style="fill:#ffc107" d="M 1.0112896,1.8462083 V 13.965171 c 0,0 -0.11125566,0.654517 0.3647464,0.79218 L 6,16 l 4.333333,-1.365875 4.004323,1.175563 c 0.708207,0.247732 0.658041,-0.494393 0.658041,-0.494393 V 3.0998941 c 0.06547,-0.6348332 -0.63778,-0.7657056 -0.63778,-0.7657056 L 10.333333,1.170504 6,2.5363784 1.6201542,1.3465927 c 0,0 -0.6088646,-0.1695589 -0.6088646,0.4996156 z"/>
 <path style="fill:#0c7bd4" d="M 9.8203125 1.3320312 L 8.0351562 1.8945312 C 7.5902045 2.3725881 7.3339844 2.8612771 7.3339844 3.6972656 C 7.3339844 4.7926269 7.772649 5.0239974 7.9160156 5.5507812 C 8.1882821 6.5512669 8.2936406 7.2575464 8.6191406 8.0800781 C 9.0670573 9.2123441 8.6888651 10.999307 9.1660156 12.125 C 9.4382156 12.767219 9.5839848 12.881717 10.333984 13.21875 C 10.500651 13.387267 10.750651 13.724062 10.833984 13.892578 C 11.018069 14.264822 10.968172 14.579912 11.101562 14.859375 L 14.337891 15.808594 C 14.426417 15.83956 14.501961 15.855946 14.568359 15.859375 C 14.701156 15.866234 14.794172 15.824437 14.857422 15.761719 C 15.015547 15.604922 14.996094 15.316406 14.996094 15.316406 L 14.996094 15.314453 L 14.996094 15.126953 C 14.651389 11.954614 12.494277 11.463994 11.595703 10.705078 C 10.583803 9.8504605 11.231151 9.0308999 10.833984 7.8261719 C 10.739568 7.5397773 10.500651 6.5630481 10.333984 6.3945312 C 9.5839848 5.88898 9.1660156 5.3836006 8.9160156 4.5410156 C 8.4106984 2.8378731 9.9350641 1.9267821 9.8203125 1.3320312 z M 4.2226562 13.712891 C 4.1501842 13.707291 4.0762709 13.710469 4 13.724609 C 3.3042833 13.853642 3.3326824 14.650939 2.6660156 14.482422 C 2.3272761 14.396829 1.8654666 14.522399 1.5683594 14.808594 L 5.984375 15.996094 L 6.1054688 15.966797 L 8.1621094 15.318359 C 7.5923153 14.515251 6.3365363 13.305597 5.9667969 13.978516 C 5.4563803 14.199695 4.7299626 13.752045 4.2226562 13.712891 z"/>
 <path style="fill:#4caf50" d="M 1.4824219 1.3339844 C 1.4387048 1.3321777 1.3915803 1.3327482 1.3398438 1.34375 C 1.3299298 1.3458756 1.3204897 1.3467925 1.3105469 1.3496094 C 1.2445342 1.3685235 1.1797477 1.4093683 1.1269531 1.4707031 C 1.1067764 1.4943631 1.089905 1.5226873 1.0742188 1.5546875 C 1.0652944 1.5728565 1.0539945 1.5882168 1.046875 1.609375 C 1.0251934 1.6740487 1.0117188 1.7491825 1.0117188 1.8457031 L 1.0117188 5.6425781 C 1.1716426 5.5680443 1.3876779 5.46875 1.5 5.46875 C 1.8617834 5.46875 2.084125 5.5520502 2.453125 5.5039062 C 2.6808583 5.4741302 2.8350083 5.2566798 3.046875 5.203125 C 3.2470415 5.1525701 3.5110749 5.1674105 3.703125 5.0703125 C 3.9652917 4.9378581 4.3327731 4.5421169 4.5351562 3.6875 C 4.5937063 3.4402182 4.4648438 3.1687913 4.4648438 2.9160156 C 4.4648438 2.7569626 4.5162703 2.3955727 4.6074219 2.1582031 L 1.6269531 1.3476562 L 1.6210938 1.3457031 C 1.6210938 1.3457031 1.6191705 1.3457114 1.6191406 1.3457031 C 1.6191406 1.3457031 1.5461894 1.3389232 1.4824219 1.3339844 z"/>
 <path style="fill:#81c784" d="M 7.9166665,6.647306 7.75,5.9732383 6.8333333,6.7315648 7.0000002,7.4056326 Z"/>
 <path style="fill:#4d7687" d="M 3.3333334,12.461142 6,12.292626 6.7500002,11.618558 V 10.017646 L 6,10.691714 3.3333334,10.94449 Z"/>
 <path style="fill:#df5050" d="M 6.8833333,8.6695099 6.6333334,7.4224847 6,7.9111841 4.6666669,8.1639595 4.2500001,6.0574967 2.5,6.4787894 3.1666665,10.059775 6,9.4278365 Z"/>
 <path style="fill:#ff8a65" d="M 13,3.6982589 V 5.2149121 L 14.416666,5.636204 V 4.1195516 Z"/>
 <path style="fill:#00bcd4" d="M 6,3.1927081 7.75,2.51864 V 3.1927081 L 7.2499997,3.361225 V 3.5850661 L 6,4.1195516 5.7170001,4.0352928 V 3.1084494 Z"/>
 <path style="fill:#b89b00" d="m 11.916666,8.8380273 1.416667,0.9268435 0.5,-0.6740681 -1.416666,-0.9268432 z"/>
 <path style="fill:#b89b00" d="M 13.749783,6.3100645 13.25,6.9846177 14.666558,7.9114612 14.995442,7.4678567 V 7.1248634 Z"/>
 <path style="fill:#b89b00" d="M 12.583333,7.9111841 14,8.8380273 14.499999,8.1639595 13.083333,7.237116 Z"/>
 <path style="fill:#646464" d="m 2.2167969,6.7651021 -0.2498915,0.084605 0.5666233,3.2858729 -0.078234,2.740896 0.2840711,-0.04345 0.077474,-2.714219 z m 0.5225694,6.0679289 -0.00608,0.201222 -0.2833115,0.01677 0.00532,-0.174545 -0.038737,0.0061 -1.4051648,0.993918 v 0.08841 c 0,0 -0.0295474,0.187384 0.013672,0.382628 L 2.5001103,13.30407 2.6664513,13.253 6.0000008,13.051015 7.1667769,12.124171 7.0832259,11.702671 5.9999991,12.629521 2.75,12.831506 Z"/>
 <ellipse style="fill:#222222;stroke:#ffffff;stroke-width:0.13407141;stroke-linecap:round;stroke-linejoin:round" cx="2.592" cy="13.059" rx=".225" ry=".228"/>
 <ellipse style="fill:#222222;stroke:#ffffff;stroke-width:0.13407141;stroke-linecap:round;stroke-linejoin:round" cx="7.167" cy="11.88" rx=".225" ry=".228"/>
 <ellipse style="fill:#222222;stroke:#ffffff;stroke-width:0.13407141;stroke-linecap:round;stroke-linejoin:round" cx="2.083" cy="6.824" rx=".225" ry=".228"/>
 <ellipse style="fill:#222222;stroke:#ffffff;stroke-width:0.13407141;stroke-linecap:round;stroke-linejoin:round" cx="2.667" cy="10.127" rx=".225" ry=".228"/>
 <path style="fill:#ffffff;opacity:0.3" d="M 1.0112896,1.8462083 V 13.965171 c 0,0 -0.11125566,0.654517 0.3647464,0.79218 L 6,16 C 5.984375,15.996094 6,2.5363784 6,2.5363784 L 1.6201542,1.3465927 c 0,0 -0.6088646,-0.1695589 -0.6088646,0.4996156 z"/>
 <path style="fill:#ffffff;opacity:0.3" d="m 10.333333,14.634125 4.004323,1.175563 c 0.708207,0.247732 0.658041,-0.494393 0.658041,-0.494393 V 3.0998941 c 0.06547,-0.6348332 -0.63778,-0.7657056 -0.63778,-0.7657056 L 10.333333,1.170504 Z"/>
 <path style="fill:#b1a390" d="M 7.1686198,9.0155623 7.0448132,11.204672 7.6152342,11.542959 9.3075087,10.28512 Z"/>
 <path style="fill:#505050" d="M 7.0448132,11.204672 7,12 7.6152342,11.542959 Z"/>
 <path style="fill:#a15f34" d="M 12.903972,5.291665e-4 C 12.264404,0.02078759 11.696511,0.62795816 11.479058,1.0232069 L 7.1686198,9.0155623 9.3075087,10.28512 9.3621962,10.244495 13.765299,2.1857314 C 14.261425,1.330786 13.897477,0.33158157 13.355143,0.08959356 13.203393,0.02188297 13.051564,-0.00414585 12.903972,5.291665e-4 Z"/>
</svg>
